X: 20711
T: Johnny Boyle's
R: jig
M: 6/8
K: Gmajor
g2 f efg|d2 B BAB|c2 A AGA|B2 G G2 f|
g2 f efg|d2 B BAB|c2 a agf|g3:|
b2 g gfg|b2 g gfg|a2 f fef|a2 f d2 a|
b2 g gfg|b2 g gfg|e2 a agf|g3:|

